X: 1
T: Kathy Flaherty's Claim To Grace
M: 4/4
L: 1/8
R: reel
K: Emin
EF | GEBE GBFB | GEBE GBFB | D2FA DAFA | dfed AdFA |
(3GFEBE GBFB | (3GFEBE GBEB | D2FA dfed | eBcA BGBd |
efgb efgb | efgb afge | fdAd FdEd | FdEd Dfed |
efgb ef(3gfe | bgaf gfed | eBAc BAGE | FADF E2EF|
